X:8017
T:Jimmy Duffy's Barndance No.1 
R:Barndance
S:
H:
N:
D:Dog Big & Dog Little
Z:Adrian Scahill
M:4/4
L:1/8
K:G 
BGDG B2B2|BAGB d2d2|efgd B2cB|AGFG A3c|\
BGDG B2B2|BAGB d3d|efgd B2cB|ADFA g4:||\
g3d B2B2|BAGB d2d2|efgd B2cB|AGFG A4|\
g3d B2B2|BAGB d2d2|efgd B2cB|AGFA G4:||


